storage/app/icons/phosphoricons/fill/text-t-fill.svg

<svg xmlns="http://www.w3.org/2000/svg" fill="currentColor" viewBox="0 0 256 256"><path d="M208 32H48a16 16 0 0 0-16 16v160a16 16 0 0 0 16 16h160a16 16 0 0 0 16-16V48a16 16 0 0 0-16-16m-24 64a8 8 0 0 1-16 0v-8h-32v88h12a8 8 0 0 1 0 16h-40a8 8 0 0 1 0-16h12V88H88v8a8 8 0 0 1-16 0V80a8 8 0 0 1 8-8h96a8 8 0 0 1 8 8Z"/></svg>

<svg xmlns="http://www.w3.org/2000/svg" viewBox="0 0 256 256" fill="currentColor"><path d="M208,32H48A16,16,0,0,0,32,48V208a16,16,0,0,0,16,16H208a16,16,0,0,0,16-16V48A16,16,0,0,0,208,32ZM184,96a8,8,0,0,1-16,0V88H136v88h12a8,8,0,0,1,0,16H108a8,8,0,0,1,0-16h12V88H88v8a8,8,0,0,1-16,0V80a8,8,0,0,1,8-8h96a8,8,0,0,1,8,8Z"/></svg>
